X:1
T:093 - Só No Sangue
T:Letra: Robert Lowry (1826-1899)
T:Trad.: James Jackson Taylor (1855-1924)
T:Música: Robert Lowry (1826-1899)
L:1/4
M:4/4
Q:1/4=115
K:Gmaj
V:1
"G"GGG "D"A |"G"BdB2 |G3/4G/4 G3/4A/4 BB | "D7"A2 "G"Gz | "G"GGG "D"A |"G"BdB2 |G3/4G/4 G3/4A/4 BB | "D7"A2 "G"Gz || "G"d2 B "D"A | "G"BdB2 | "D7"A2 AG | AA ("G"Bd) | d2 B "D"A | "G"BdB2 |G3/4G/4 G3/4A/4 BB |"D7"A2 "G"Gz |]
w: 1.~Quem me po-de-rá sal-var? Cris-to, que ver-teu seu san-gue. On-deas man-chas vou lim-par? Só no seu pre-cio-so san-gue.  Oh, que pre-cio-sa paz,    Que vem da su-a cruz!_   A qual me dá Je-sus Pe-lo seu pre-cio-so san-gue!  
w: 2.~Ve-joa mi-nha sal-va-ção Só no seu pre-cio-so san-gue. Deus con-ce-de-me per-dão Só no seu pre-cio-so san-gue.  
w: 3.~De-le vem per-fei-ta paz Pe-lo seu pre-cio-so san-gue; In-fa-lí-vel ee-fi-caz, Es-se tão pre-cio-so san-gue.  
w: 4.~Mi-nha jus-ti-fi-ca-ção Te-nho no pre-cio-so san-gue; Go-zo traz ao co-ra-ção Es-se tão pre-cio-so san-gue.  
w: 5.~En-tra-rei no céu, en-fim, Pe-lo seu pre-cio-so san-gue; Lou-va-rei, en-tão, sem fim, Es-se tão pre-cio-so san-gue.             
W:
W: 
W: 1. Quem me poderá salvar?
W: Cristo, que verteu seu sangue.
W: Onde as manchas vou limpar?
W: Só no seu precioso sangue.
W: 
W:    (Estribilho)
W:    Oh, que preciosa paz,
W:    Que vem da sua cruz!
W:    A qual me dá Jesus           
W:    Pelo seu precioso sangue!
W: 
W: 2. Vejo a minha salvação
W: Só no seu precioso sangue.
W: Deus concede-me perdão
W: Só no seu precioso sangue.
W: 
W: 
W: 
W: 3. Dele vem perfeita paz
W: Pelo seu precioso sangue;
W: Infalível e eficaz,
W: Esse tão precioso sangue.
W: 
W: 4. Minha justificação
W: Tenho no precioso sangue;
W: Gozo traz ao coração
W: Esse tão precioso sangue.
W: 
W: 5. Entrarei no céu, enfim,
W: Pelo seu precioso sangue;
W: Louvarei, então, sem fim,
W: Esse tão precioso sangue.
W: 
W: 
W: 
W:         
W: 				         
W:           





